X: 5
T: Rodney's Glory
R: hornpipe
M: 4/4
L: 1/8
K: Ador
|: e>d|\ c2 B2 A>B c>~A | A>G E>F G2 c>d | e>f e>d c>d e>f |g>f g>e d2 e>d|
c2 B2 A>B c>~A | A>G E>F G2 e>d | c>A B>A G>A A>G | A2 A>B A2 :|
|: (3Bcd e>f g>e a>g | e>d e>f e>d c>B | c>d e>f g>e a>f | g>e d>~B2 A>G G2 |
A>F A>B c>B c>d | e>f g>e a2 a>b | a>g f>e c>d e>f | g>f g>e d2 e>d |
c2 B2 A>B c>~A | A>G E>F G2 e>d | c>A B>A G>A A>G | A2 A>B A2 :|


Tune 3786	Setting 3786

